X:30
T:Empty Barrel, The
C:Pierre Commes
R:Jig
Q:1/4=120
V:1
M:6/8
L:1/8
K: Bm  
   A | BDF BDF | BAB dcd | fcA fcA | gfg edc | BDF BDF | BAB dcd | fcA edc | Bdc B2 :|
|: d | geB Geg | fdB FDF | ece ecG | dBF dBf | geB Geg | fdB Fed | ~f3 edc | BAc B2 :|
